archieved/d/images/Dynameyes_logo.svg

<svg height="84" viewBox="0 0 602 84" width="602" xmlns="http://www.w3.org/2000/svg"><g fill="none" transform="translate(-.35 .43)"><g fill="#fff"><path d="m238.11 21.6c4.11 4.16 6.17 10.06 6.17 17.7s-2.06 13.54-6.17 17.7-9.92 6.24-17.41 6.24h-18.5v-47.88h18.5c7.5 0 13.3 2.08 17.41 6.24zm-7.65 29.56c2.3-2.73 3.45-6.69 3.45-11.86s-1.15-9.13-3.45-11.86-5.72-4.1-10.27-4.1h-7.98v31.93h7.98c4.55-.01 7.97-1.37 10.27-4.11z"/><path d="m273.23 65.49c-1.79 4.93-3.86 8.39-6.2 10.38-2.35 1.98-5.48 2.97-9.4 2.97s-6.99-.94-9.21-2.83l2.47-7.04c.77.87 1.63 1.46 2.58 1.78.94.31 2.12.47 3.52.47 1.5 0 2.71-.32 3.63-.94.92-.63 1.69-1.77 2.32-3.41l1.31-3.12-3.99-9.43-11.1-27.35h11.03l6.82 21.77 1.96 7.26 2.18-7.69 6.68-21.33h10.09z"/><path d="m324.64 29.65c2.39 2.27 3.59 5.54 3.59 9.79v23.8h-9.94v-20.9c0-5.51-2.15-8.27-6.46-8.27-2.32 0-4.29.82-5.91 2.47s-2.43 4.16-2.43 7.55v19.16h-9.94v-36.28h8.92l.29 6.46c1.21-2.37 2.88-4.16 5.01-5.37s4.6-1.8100652 7.4-1.8100652c3.92-.0099348 7.07 1.1300652 9.47 3.4000652z"/><path d="m374.09 56.93-.73 6.02c-1.35.68-2.93 1.02-4.72 1.02-4.64 0-7.43-1.81-8.34-5.44-1.07 1.79-2.71 3.15-4.93 4.06-2.23.92-4.86 1.38-7.91 1.38-3.53 0-6.29-.8-8.27-2.39-1.98-1.6-2.97-3.89-2.97-6.89 0-5.9 4.72-9.72 14.15-11.46l8.71-1.67v-1.74c0-1.93-.54-3.47-1.63-4.61s-2.6-1.71-4.53-1.71c-2.23 0-4.04.48-5.44 1.45s-2.37 2.54-2.9 4.72l-7.91-3.34c.77-3.14 2.51-5.61 5.22-7.4s6.24-2.68 10.59-2.68c5.18 0 9.21 1.12 12.12 3.37 2.9 2.25 4.35 5.58 4.35 9.98v14.87c0 .97.22 1.67.65 2.1.44.44 1.11.65 2.03.65 1 0 1.83-.09 2.46-.29zm-17.67-1.27c1.76-1.04 2.65-2.45 2.65-4.24v-3.77l-7.76 1.74c-1.64.39-2.87.91-3.66 1.56-.8.65-1.2 1.56-1.2 2.72s.36 2.04 1.09 2.65 1.74.91 3.05.91c2.11-.01 4.06-.53 5.83-1.57z"/><path d="m434.78 29.65c2.44 2.27 3.66 5.54 3.66 9.79v23.8h-9.94v-21.83c0-2.52-.56-4.37-1.67-5.55s-2.64-1.78-4.57-1.78c-2.32 0-4.23.85-5.73 2.54s-2.25 4.06-2.25 7.11v19.52h-9.94v-21.84c0-2.52-.56-4.37-1.67-5.55s-2.66-1.78-4.64-1.78c-2.18 0-4.05.83-5.62 2.5s-2.36 4.15-2.36 7.44v19.23h-9.94v-36.28h8.92l.29 6.46c1.21-2.37 2.87-4.16 4.97-5.37s4.46-1.8100652 7.07-1.8100652c2.71 0 5.12.6300652 7.22 1.8900652s3.64 3.07 4.61 5.44c1.16-2.37 2.85-4.18 5.08-5.44 2.22-1.26 4.64-1.8900652 7.26-1.8900652 3.72-.0099348 6.81 1.1300652 9.25 3.4000652z"/><path d="m482.27 48.88h-25.69c1.02 5.13 4.04 7.69 9.07 7.69 2.08 0 3.8-.39 5.15-1.16s2.3-1.89 2.83-3.34l8.13 2.97c-1.16 2.9-3.11 5.12-5.84 6.64s-6.16 2.29-10.27 2.29c-6 0-10.64-1.66-13.93-4.97s-4.93-7.94-4.93-13.89 1.6-10.58 4.79-13.89 7.69-4.97 13.5-4.97c5.61 0 9.93 1.62 12.95 4.86s4.53 7.86 4.53 13.86c0 1.35-.1 2.65-.29 3.91zm-23.04-13.21c-1.43 1.4-2.33 3.48-2.72 6.24h16.91c-.39-2.71-1.31-4.78-2.76-6.2-1.45-1.43-3.34-2.14-5.66-2.14-2.42 0-4.34.7-5.77 2.1z"/><path d="m509.55 65.49c-1.79 4.93-3.86 8.39-6.2 10.38-2.35 1.98-5.48 2.97-9.4 2.97s-6.99-.94-9.21-2.83l2.47-7.04c.77.87 1.63 1.46 2.58 1.78.94.31 2.11.47 3.52.47 1.5 0 2.71-.32 3.63-.94.92-.63 1.69-1.77 2.32-3.41l1.31-3.12-3.99-9.43-11.1-27.35h11.03l6.82 21.77 1.96 7.26 2.18-7.69 6.67-21.33h10.08z"/><path d="m562.95 48.88h-25.69c1.02 5.13 4.04 7.69 9.07 7.69 2.08 0 3.8-.39 5.15-1.16s2.3-1.89 2.83-3.34l8.13 2.97c-1.16 2.9-3.11 5.12-5.84 6.64s-6.16 2.29-10.27 2.29c-6 0-10.64-1.66-13.93-4.97s-4.93-7.94-4.93-13.89 1.6-10.58 4.79-13.89 7.69-4.97 13.5-4.97c5.61 0 9.93 1.62 12.95 4.86s4.53 7.86 4.53 13.86c0 1.35-.1 2.65-.29 3.91zm-23.04-13.21c-1.43 1.4-2.33 3.48-2.72 6.24h16.91c-.39-2.71-1.31-4.78-2.76-6.2-1.45-1.43-3.34-2.14-5.66-2.14-2.42 0-4.34.7-5.77 2.1z"/><path d="m568.83 57.01 5.8-5.95c.97 2.08 2.36 3.54 4.17 4.39s4.05 1.27 6.71 1.27c2.13 0 3.77-.29 4.93-.87s1.74-1.38 1.74-2.39c0-.82-.54-1.52-1.63-2.1s-2.96-1.14-5.62-1.67c-5.56-1.11-9.47-2.58-11.72-4.39s-3.37-4.27-3.37-7.36c0-2.03.63-3.94 1.89-5.73s3.12-3.23 5.59-4.32 5.42-1.63 8.85-1.63c4.06 0 7.35.62 9.87 1.85 2.51 1.23 4.62 3.18 6.31 5.84l-6.17 5.22c-1.06-1.93-2.38-3.36-3.95-4.28s-3.54-1.38-5.91-1.38c-1.98 0-3.57.34-4.75 1.02-1.19.68-1.78 1.5-1.78 2.47 0 1.02.58 1.86 1.74 2.54s3.22 1.31 6.17 1.89c5.27 1.06 9.01 2.46 11.21 4.17 2.2 1.72 3.3 4.1 3.3 7.15 0 3.39-1.44 6.11-4.32 8.16-2.88 2.06-6.95 3.08-12.23 3.08-8.08-.02-13.69-2.34-16.83-6.98z"/></g><path d="m88.85 16.59c-13.73 0-24.9 11.17-24.9 24.9s11.17 24.9 24.9 24.9 24.9-11.17 24.9-24.9-11.18-24.9-24.9-24.9zm0 41.34c-9.06 0-16.43-7.37-16.43-16.43s7.37-16.43 16.43-16.43 16.43 7.37 16.43 16.43-7.37 16.43-16.43 16.43z" fill="#e42520"/><path d="m88.85 0c-22.88 0-41.5 18.61-41.5 41.49s18.61 41.49 41.5 41.49 41.5-18.61 41.5-41.49-18.62-41.49-41.5-41.49zm0 74.53c-18.22 0-33.03-14.82-33.03-33.03s14.81-33.04 33.03-33.04 33.03 14.82 33.03 33.03-14.82 33.04-33.03 33.04z" fill="#e42520"/><circle cx="88.85" cy="41.49" fill="#e42520" r="8.3"/><path d="m132.13 76.03 44.95-36.27-44.87-35.88.04 12.96 29.24 22.97-29.33 23.58z" fill="#fff"/><path d="m44.95 76.03-44.95-36.27 44.87-35.88-.04 12.96-29.24 22.97 29.34 23.58z" fill="#fff"/></g></svg>

<?xml version="1.0" encoding="UTF-8"?>
<svg width="602px" height="84px" viewBox="0 0 602 84" version="1.1" xmlns="http://www.w3.org/2000/svg" xmlns:xlink="http://www.w3.org/1999/xlink">
    <!-- Generator: Sketch 56.3 (81716) - https://sketch.com -->
    <title>Group</title>
    <desc>Created with Sketch.</desc>
    <g id="Page-1" stroke="none" stroke-width="1" fill="none" fill-rule="evenodd">
        <g id="logo" transform="translate(0.000000, -10.000000)" fill-rule="nonzero">
            <g id="Group" transform="translate(-0.350000, 10.430000)">
                <path d="M238.11,21.6 C242.22,25.76 244.28,31.66 244.28,39.3 C244.28,46.94 242.22,52.84 238.11,57 C234,61.16 228.19,63.24 220.7,63.24 L202.2,63.24 L202.2,15.36 L220.7,15.36 C228.2,15.36 234,17.44 238.11,21.6 Z M230.46,51.16 C232.76,48.43 233.91,44.47 233.91,39.3 C233.91,34.13 232.76,30.17 230.46,27.44 C228.16,24.71 224.74,23.34 220.19,23.34 L212.21,23.34 L212.21,55.27 L220.19,55.27 C224.74,55.26 228.16,53.9 230.46,51.16 Z" id="Shape" fill="#FFFFFF"></path>
                <path d="M273.23,65.49 C271.44,70.42 269.37,73.88 267.03,75.87 C264.68,77.85 261.55,78.84 257.63,78.84 C253.71,78.84 250.64,77.9 248.42,76.01 L250.89,68.97 C251.66,69.84 252.52,70.43 253.47,70.75 C254.41,71.06 255.59,71.22 256.99,71.22 C258.49,71.22 259.7,70.9 260.62,70.28 C261.54,69.65 262.31,68.51 262.94,66.87 L264.25,63.75 L260.26,54.32 L249.16,26.97 L260.19,26.97 L267.01,48.74 L268.97,56 L271.15,48.31 L277.83,26.98 L287.92,26.98 L273.23,65.49 Z" id="Path" fill="#FFFFFF"></path>
                <path d="M324.64,29.65 C327.03,31.92 328.23,35.19 328.23,39.44 L328.23,63.24 L318.29,63.24 L318.29,42.34 C318.29,36.83 316.14,34.07 311.83,34.07 C309.51,34.07 307.54,34.89 305.92,36.54 C304.3,38.19 303.49,40.7 303.49,44.09 L303.49,63.25 L293.55,63.25 L293.55,26.97 L302.47,26.97 L302.76,33.43 C303.97,31.06 305.64,29.27 307.77,28.06 C309.9,26.85 312.37,26.2499348 315.17,26.2499348 C319.09,26.24 322.24,27.38 324.64,29.65 Z" id="Path" fill="#FFFFFF"></path>
                <path d="M374.09,56.93 L373.36,62.95 C372.01,63.63 370.43,63.97 368.64,63.97 C364,63.97 361.21,62.16 360.3,58.53 C359.23,60.32 357.59,61.68 355.37,62.59 C353.14,63.51 350.51,63.97 347.46,63.97 C343.93,63.97 341.17,63.17 339.19,61.58 C337.21,59.98 336.22,57.69 336.22,54.69 C336.22,48.79 340.94,44.97 350.37,43.23 L359.08,41.56 L359.08,39.82 C359.08,37.89 358.54,36.35 357.45,35.21 C356.36,34.07 354.85,33.5 352.92,33.5 C350.69,33.5 348.88,33.98 347.48,34.95 C346.08,35.92 345.11,37.49 344.58,39.67 L336.67,36.33 C337.44,33.19 339.18,30.72 341.89,28.93 C344.6,27.14 348.13,26.25 352.48,26.25 C357.66,26.25 361.69,27.37 364.6,29.62 C367.5,31.87 368.95,35.2 368.95,39.6 L368.95,54.47 C368.95,55.44 369.17,56.14 369.6,56.57 C370.04,57.01 370.71,57.22 371.63,57.22 C372.63,57.22 373.46,57.13 374.09,56.93 Z M356.42,55.66 C358.18,54.62 359.07,53.21 359.07,51.42 L359.07,47.65 L351.31,49.39 C349.67,49.78 348.44,50.3 347.65,50.95 C346.85,51.6 346.45,52.51 346.45,53.67 C346.45,54.83 346.81,55.71 347.54,56.32 C348.27,56.93 349.28,57.23 350.59,57.23 C352.7,57.22 354.65,56.7 356.42,55.66 Z" id="Shape" fill="#FFFFFF"></path>
                <path d="M434.78,29.65 C437.22,31.92 438.44,35.19 438.44,39.44 L438.44,63.24 L428.5,63.24 L428.5,41.41 C428.5,38.89 427.94,37.04 426.83,35.86 C425.72,34.68 424.19,34.08 422.26,34.08 C419.94,34.08 418.03,34.93 416.53,36.62 C415.03,38.31 414.28,40.68 414.28,43.73 L414.28,63.25 L404.34,63.25 L404.34,41.41 C404.34,38.89 403.78,37.04 402.67,35.86 C401.56,34.68 400.01,34.08 398.03,34.08 C395.85,34.08 393.98,34.91 392.41,36.58 C390.84,38.25 390.05,40.73 390.05,44.02 L390.05,63.25 L380.11,63.25 L380.11,26.97 L389.03,26.97 L389.32,33.43 C390.53,31.06 392.19,29.27 394.29,28.06 C396.39,26.85 398.75,26.2499348 401.36,26.2499348 C404.07,26.2499348 406.48,26.88 408.58,28.14 C410.68,29.4 412.22,31.21 413.19,33.58 C414.35,31.21 416.04,29.4 418.27,28.14 C420.49,26.88 422.91,26.2499348 425.53,26.2499348 C429.25,26.24 432.34,27.38 434.78,29.65 Z" id="Path" fill="#FFFFFF"></path>
                <path d="M482.27,48.88 L456.58,48.88 C457.6,54.01 460.62,56.57 465.65,56.57 C467.73,56.57 469.45,56.18 470.8,55.41 C472.15,54.64 473.1,53.52 473.63,52.07 L481.76,55.04 C480.6,57.94 478.65,60.16 475.92,61.68 C473.19,63.2 469.76,63.97 465.65,63.97 C459.65,63.97 455.01,62.31 451.72,59 C448.43,55.69 446.79,51.06 446.79,45.11 C446.79,39.16 448.39,34.53 451.58,31.22 C454.77,27.91 459.27,26.25 465.08,26.25 C470.69,26.25 475.01,27.87 478.03,31.11 C481.05,34.35 482.56,38.97 482.56,44.97 C482.56,46.32 482.46,47.62 482.27,48.88 Z M459.23,35.67 C457.8,37.07 456.9,39.15 456.51,41.91 L473.42,41.91 C473.03,39.2 472.11,37.13 470.66,35.71 C469.21,34.28 467.32,33.57 465,33.57 C462.58,33.57 460.66,34.27 459.23,35.67 Z" id="Shape" fill="#FFFFFF"></path>
                <path d="M509.55,65.49 C507.76,70.42 505.69,73.88 503.35,75.87 C501,77.85 497.87,78.84 493.95,78.84 C490.03,78.84 486.96,77.9 484.74,76.01 L487.21,68.97 C487.98,69.84 488.84,70.43 489.79,70.75 C490.73,71.06 491.9,71.22 493.31,71.22 C494.81,71.22 496.02,70.9 496.94,70.28 C497.86,69.65 498.63,68.51 499.26,66.87 L500.57,63.75 L496.58,54.32 L485.48,26.97 L496.51,26.97 L503.33,48.74 L505.29,56 L507.47,48.31 L514.14,26.98 L524.22,26.98 L509.55,65.49 Z" id="Path" fill="#FFFFFF"></path>
                <path d="M562.95,48.88 L537.26,48.88 C538.28,54.01 541.3,56.57 546.33,56.57 C548.41,56.57 550.13,56.18 551.48,55.41 C552.83,54.64 553.78,53.52 554.31,52.07 L562.44,55.04 C561.28,57.94 559.33,60.16 556.6,61.68 C553.87,63.2 550.44,63.97 546.33,63.97 C540.33,63.97 535.69,62.31 532.4,59 C529.11,55.69 527.47,51.06 527.47,45.11 C527.47,39.16 529.07,34.53 532.26,31.22 C535.45,27.91 539.95,26.25 545.76,26.25 C551.37,26.25 555.69,27.87 558.71,31.11 C561.73,34.35 563.24,38.97 563.24,44.97 C563.24,46.32 563.14,47.62 562.95,48.88 Z M539.91,35.67 C538.48,37.07 537.58,39.15 537.19,41.91 L554.1,41.91 C553.71,39.2 552.79,37.13 551.34,35.71 C549.89,34.28 548,33.57 545.68,33.57 C543.26,33.57 541.34,34.27 539.91,35.67 Z" id="Shape" fill="#FFFFFF"></path>
                <path d="M568.83,57.01 L574.63,51.06 C575.6,53.14 576.99,54.6 578.8,55.45 C580.61,56.3 582.85,56.72 585.51,56.72 C587.64,56.72 589.28,56.43 590.44,55.85 C591.6,55.27 592.18,54.47 592.18,53.46 C592.18,52.64 591.64,51.94 590.55,51.36 C589.46,50.78 587.59,50.22 584.93,49.69 C579.37,48.58 575.46,47.11 573.21,45.3 C570.96,43.49 569.84,41.03 569.84,37.94 C569.84,35.91 570.47,34 571.73,32.21 C572.99,30.42 574.85,28.98 577.32,27.89 C579.79,26.8 582.74,26.26 586.17,26.26 C590.23,26.26 593.52,26.88 596.04,28.11 C598.55,29.34 600.66,31.29 602.35,33.95 L596.18,39.17 C595.12,37.24 593.8,35.81 592.23,34.89 C590.66,33.97 588.69,33.51 586.32,33.51 C584.34,33.51 582.75,33.85 581.57,34.53 C580.38,35.21 579.79,36.03 579.79,37 C579.79,38.02 580.37,38.86 581.53,39.54 C582.69,40.22 584.75,40.85 587.7,41.43 C592.97,42.49 596.71,43.89 598.91,45.6 C601.11,47.32 602.21,49.7 602.21,52.75 C602.21,56.14 600.77,58.86 597.89,60.91 C595.01,62.97 590.94,63.99 585.66,63.99 C577.58,63.97 571.97,61.65 568.83,57.01 Z" id="Path" fill="#FFFFFF"></path>
                <path d="M88.85,16.59 C75.12,16.59 63.95,27.76 63.95,41.49 C63.95,55.22 75.12,66.39 88.85,66.39 C102.58,66.39 113.75,55.22 113.75,41.49 C113.75,27.76 102.57,16.59 88.85,16.59 Z M88.85,57.93 C79.79,57.93 72.42,50.56 72.42,41.5 C72.42,32.44 79.79,25.07 88.85,25.07 C97.91,25.07 105.28,32.44 105.28,41.5 C105.28,50.56 97.91,57.93 88.85,57.93 Z" id="Shape" fill="#E42520"></path>
                <path d="M88.85,0 C65.97,0 47.35,18.61 47.35,41.49 C47.35,64.37 65.96,82.98 88.85,82.98 C111.74,82.98 130.35,64.37 130.35,41.49 C130.35,18.61 111.73,0 88.85,0 Z M88.85,74.53 C70.63,74.53 55.82,59.71 55.82,41.5 C55.82,23.29 70.63,8.46 88.85,8.46 C107.07,8.46 121.88,23.28 121.88,41.49 C121.88,59.7 107.06,74.53 88.85,74.53 Z" id="Shape" fill="#E42520"></path>
                <circle id="Oval" fill="#E42520" cx="88.85" cy="41.49" r="8.3"></circle>
                <polygon id="Path" fill="#FFFFFF" points="132.13 76.03 177.08 39.76 132.21 3.88 132.25 16.84 161.49 39.81 132.16 63.39"></polygon>
                <polygon id="Path" fill="#FFFFFF" points="44.95 76.03 0 39.76 44.87 3.88 44.83 16.84 15.59 39.81 44.93 63.39"></polygon>
            </g>
        </g>
    </g>
</svg>
